assets/icons/qvision/event_seat.svg

<svg xmlns="http://www.w3.org/2000/svg" enable-background="new 0 0 24 24" height="24" viewBox="0 0 24 24" width="24"><g><rect fill="none" height="24" width="24" x="0"/></g><g><g><g><path d="M4,18v3h3v-3h10v3h3v-6H4V18z M19,10h3v3h-3V10z M2,10h3v3H2V10z M17,13H7V5c0-1.1,0.9-2,2-2h6c1.1,0,2,0.9,2,2V13z"/></g></g></g></svg>

<svg width="24" height="24" viewBox="0 0 24 24" fill="none" xmlns="http://www.w3.org/2000/svg">
<g clip-path="url(#clip0_147_4142)">
<path d="M4 18V21H7V18H17V21H20V15H4V18ZM19 10H22V13H19V10ZM2 10H5V13H2V10ZM17 13H7V5C7 3.9 7.9 3 9 3H15C16.1 3 17 3.9 17 5V13Z" fill="#323232"/>
</g>
<defs>
<clipPath id="clip0_147_4142">
<rect width="24" height="24" fill="white"/>
</clipPath>
</defs>
</svg>
